assets/Identification card/Flat/identification_card_flat.svg

<svg width="32" height="32" viewBox="0 0 32 32" fill="none" xmlns="http://www.w3.org/2000/svg">
<path d="M27.8 30H4.2C3 30 2 29 2 27.8V14.2C2 13 3 12 4.2 12H27.7C29 12 30 13 30 14.2V27.7C30 29 29 30 27.8 30Z" fill="#26C9FC"/>
<path d="M26.4046 28H14.5954C14.2977 28 14 27.8065 14 27.4194V25.5806C14 25.2903 14.1985 25 14.5954 25H26.4046C26.7023 25 27 25.1935 27 25.5806V27.4194C27 27.7097 26.7023 28 26.4046 28Z" fill="#F4F4F4"/>
<path d="M11.0244 23H8H4.97561C4.5834 23 4.19119 23.7414 4.05253 23.3282C4.01873 23.2275 4 23.1176 4 23V15C4 14.5 4.39024 14 4.97561 14H11.0244C11.5122 14 12 14.4 12 15V23C12 23.0723 11.9943 23.1417 11.9833 23.2078C11.9031 23.6906 11.5392 23 11.0244 23Z" fill="white"/>
<path d="M14.5 15C14.2239 15 14 15.2239 14 15.5C14 15.7761 14.2239 16 14.5 16H26.5C26.7762 16 27 15.7761 27 15.5C27 15.2239 26.7762 15 26.5 15H14.5ZM14 18.5C14 18.2239 14.2239 18 14.5 18H26.5C26.7762 18 27 18.2239 27 18.5C27 18.7761 26.7762 19 26.5 19H14.5C14.2239 19 14 18.7761 14 18.5ZM14 21.5C14 21.2239 14.2239 21 14.5 21H26.5C26.7762 21 27 21.2239 27 21.5C27 21.7761 26.7762 22 26.5 22H14.5C14.2239 22 14 21.7761 14 21.5Z" fill="#0074BA"/>
<path d="M8.47558 15H7.49655C6.41961 15 5.63639 15.9204 5.73429 17.0454L5.77487 17.5752C5.47114 17.6487 5.24476 17.9331 5.24476 18.2727C5.24476 18.6516 5.52646 18.9617 5.88298 18.9869L5.9301 19.6022C6.00705 20.2453 6.4469 20.8252 7.05949 21.044C5.78604 21.3272 4.69582 22.1278 4 23.225C4.11056 23.6986 4.53077 24 4.95098 24H11.021C11.6084 24 12 23.5909 12 22.9773C11.2826 21.9798 10.2241 21.2648 9.00547 21.0223C9.56938 20.8044 9.96902 20.2886 10.042 19.6022L10.0891 18.9869C10.4457 18.9617 10.7273 18.6515 10.7273 18.2727C10.7273 17.9331 10.501 17.6487 10.1973 17.5752L10.2378 17.0454C10.3357 15.9204 9.45461 15 8.47558 15Z" fill="#321B41"/>
<path d="M15.5 27H25.5C25.7 27 26 26.8 26 26.5C26 26.2 25.8 26 25.5 26H15.5C15.2 26 15 26.2 15 26.5C15 26.8 15.2 27 15.5 27Z" fill="#321B41"/>
</svg>

<svg xmlns="http://www.w3.org/2000/svg" width="32" height="32" fill="none"><path fill="#26C9FC" d="M27.8 30H4.2C3 30 2 29 2 27.8V14.2C2 13 3 12 4.2 12h23.5c1.3 0 2.3 1 2.3 2.2v13.5c0 1.3-1 2.3-2.2 2.3Z"/><path fill="#F4F4F4" d="M26.405 28h-11.81c-.297 0-.595-.194-.595-.58v-1.84c0-.29.198-.58.595-.58h11.81c.297 0 .595.194.595.58v1.84c0 .29-.298.58-.595.58Z"/><path fill="#fff" d="M11.024 23H4.976c-.393 0-.785.741-.923.328-.034-.1-.053-.21-.053-.328v-8c0-.5.39-1 .976-1h6.048c.488 0 .976.4.976 1v8c0 .072-.006.142-.017.208-.08.483-.444-.208-.959-.208Z"/><path fill="#0074BA" d="M14.5 15a.5.5 0 0 0 0 1h12a.5.5 0 1 0 0-1h-12Zm-.5 3.5a.5.5 0 0 1 .5-.5h12a.5.5 0 1 1 0 1h-12a.5.5 0 0 1-.5-.5Zm0 3a.5.5 0 0 1 .5-.5h12a.5.5 0 1 1 0 1h-12a.5.5 0 0 1-.5-.5Z"/><path fill="#321B41" d="M8.476 15h-.98c-1.076 0-1.86.92-1.762 2.045l.04.53a.71.71 0 0 0-.53.698c0 .379.282.689.639.714l.047.615c.077.643.517 1.223 1.13 1.442-1.274.283-2.364 1.084-3.06 2.181.11.474.53.775.951.775h6.07c.587 0 .979-.41.979-1.023a4.874 4.874 0 0 0-2.995-1.955c.564-.218.964-.733 1.037-1.42l.047-.615a.704.704 0 0 0 .638-.714.71.71 0 0 0-.53-.698l.04-.53C10.337 15.92 9.456 15 8.477 15ZM15.5 27h10c.2 0 .5-.2.5-.5s-.2-.5-.5-.5h-10c-.3 0-.5.2-.5.5s.2.5.5.5Z"/></svg>
